X:103
T: "Karácsonyi pásztortánc"
M: 2/4
L: 1/4
K: F
g/a/g/f/ | e c | f/e/d | c2 | 
g/a/g/f/ | e c | f/e/d | c2 | 
dd | B d | c/B/ A | d2 | 
d d | B d | c/B/ A | G2 | 

